X: 8314
T: Corrievreckan
R: polka
M: 2/4
K: Eminor
|:Ee ed|B2 AG|AB de|B2 GB|AG ED|
Ee ed|B2 AG|AB de|BA GA|B2 ~B2:|
|:Bd e2|ag f2|ag f2|ee de|dB AG|
Bd e2|1 ag f2|ag f2|ee dB|A2 ~A2:|
Bd eb|2 ag fb|ag fB|ee dB|A2 ~A2||
|:de ed|BB AG|AB de|BB GB|AG ED|
Ee ed|BB AG|AB de|BA GA|AB ~B2:|
|:e2 ed|BE GB|AA Bd|BA GB|AG ED|
EB ed|BB AG|AB de|BA GA|AB ~B2:|

